storage/app/icons/phosphoricons/light/list-plus-light.svg

<svg xmlns="http://www.w3.org/2000/svg" fill="currentColor" viewBox="0 0 256 256"><path d="M34 64a6 6 0 0 1 6-6h176a6 6 0 0 1 0 12H40a6 6 0 0 1-6-6m6 70h176a6 6 0 0 0 0-12H40a6 6 0 0 0 0 12m104 52H40a6 6 0 0 0 0 12h104a6 6 0 0 0 0-12m88 0h-18v-18a6 6 0 0 0-12 0v18h-18a6 6 0 0 0 0 12h18v18a6 6 0 0 0 12 0v-18h18a6 6 0 0 0 0-12"/></svg>

<svg xmlns="http://www.w3.org/2000/svg" viewBox="0 0 256 256" fill="currentColor"><path d="M34,64a6,6,0,0,1,6-6H216a6,6,0,0,1,0,12H40A6,6,0,0,1,34,64Zm6,70H216a6,6,0,0,0,0-12H40a6,6,0,0,0,0,12Zm104,52H40a6,6,0,0,0,0,12H144a6,6,0,0,0,0-12Zm88,0H214V168a6,6,0,0,0-12,0v18H184a6,6,0,0,0,0,12h18v18a6,6,0,0,0,12,0V198h18a6,6,0,0,0,0-12Z"/></svg>
